img/04_144.svg

<svg width="144" height="144" viewBox="0 0 144 144" fill="none" xmlns="http://www.w3.org/2000/svg">
<path d="M125.601 118.5C124.333 118.5 123.302 119.531 123.302 120.799V121.018C123.302 122.286 124.333 123.317 125.601 123.317C126.869 123.317 127.9 122.286 127.9 121.018V120.799C127.899 119.531 126.868 118.5 125.601 118.5Z" fill="#11305D"/>
<path d="M34.5536 95.752C29.1456 97.44 24.5526 100.713 21.2176 105.236C17.8696 109.776 16.1006 115.158 16.1006 120.798V141.2C16.1006 142.468 17.1316 143.499 18.3986 143.499H125.601C126.869 143.499 127.9 142.468 127.9 141.2V131.917C127.9 130.649 126.869 129.618 125.601 129.618C124.333 129.618 123.302 130.649 123.302 131.917V138.901H91.9286L104.526 127.728C105.381 126.97 105.547 125.682 104.912 124.729L99.5546 116.728L110.04 100.854L110.437 101.03C114.663 102.897 118.116 106.005 120.423 110.014C121.032 111.071 122.502 111.469 123.562 110.86C124.094 110.553 124.475 110.058 124.635 109.465C124.795 108.872 124.714 108.252 124.408 107.721C121.092 101.96 115.772 97.707 109.428 95.744L92.3256 90.452C90.3596 89.844 88.7056 88.534 87.6696 86.764L87.2596 86.064L88.0676 85.992C103.086 84.642 114.849 71.766 114.849 56.676V42.36C114.849 19.278 96.0706 0.5 72.9886 0.5H71.0116C47.9296 0.5 29.1516 19.278 29.1516 42.36V56.676C29.1516 71.764 40.9136 84.641 55.9286 85.992L56.8466 86.074L56.2946 86.813C55.2346 88.583 53.6016 89.856 51.6736 90.454L34.5536 95.752ZM85.0006 138.902H75.5686L89.2906 94.209L89.8126 94.426C90.1876 94.582 90.5716 94.724 90.9656 94.846L105.523 99.35L94.8746 115.472C94.3626 116.246 94.3666 117.245 94.8836 118.017L99.9736 125.622L85.0006 138.902ZM68.8896 138.902H59.4586L44.4846 125.623L49.5756 118.017C50.0916 117.246 50.0956 116.246 49.5836 115.472L38.8576 99.232L53.0316 94.846C53.5536 94.685 54.0726 94.487 54.5746 94.258L55.1086 94.015L68.8896 138.902ZM52.5306 138.902H20.6966V120.798C20.6966 112.06 25.8906 104.236 33.9276 100.869L34.3206 100.704L44.9036 116.728L39.5476 124.731C38.9106 125.681 39.0766 126.97 39.9326 127.729L52.5306 138.902ZM72.2296 134.117L64.3686 108.514L71.9996 99.246L79.9646 108.92L72.2296 134.117ZM81.5816 103.653L75.4626 96.22L84.7216 90.613L85.3446 91.322L85.2776 91.617L81.5816 103.653ZM62.7516 103.245L58.9646 90.912L68.4836 96.285L62.7516 103.245ZM71.9586 92.968L61.3076 86.955L61.4356 86.557C61.8436 85.286 62.0496 83.959 62.0496 82.617V81.565L62.7226 81.783C68.7106 83.721 75.2906 83.721 81.2776 81.783L81.9506 81.565V82.617C81.9506 83.827 82.1176 85.023 82.4466 86.174L82.5546 86.552L71.9586 92.968ZM86.5466 81.496V79.502L86.8086 79.355C96.2496 74.021 102.149 63.998 102.205 53.194L102.207 37.993C102.207 36.725 101.176 35.694 99.9076 35.694C98.6396 35.694 97.6086 36.725 97.6086 37.993V39.277H96.4496C91.7916 39.277 87.3406 37.851 83.5756 35.153L82.9766 34.723L83.5856 34.309C86.5166 32.317 89.2756 30.032 91.7886 27.52C92.2236 27.086 92.4616 26.508 92.4616 25.895C92.4616 25.281 92.2236 24.703 91.7886 24.269C90.9196 23.401 89.4056 23.401 88.5376 24.269C78.7126 34.095 65.6466 39.506 51.7506 39.506H46.3896V37.992C46.3896 36.724 45.3586 35.693 44.0916 35.693C42.8246 35.693 41.7926 36.724 41.7926 37.992L41.7946 53.186C41.8836 64.049 47.7826 74.039 57.1906 79.354L57.4516 79.501V81.494L56.9026 81.457C43.9186 80.583 33.7486 69.698 33.7486 56.676V42.36C33.7486 21.814 50.4646 5.097 71.0116 5.097H72.9886C93.5356 5.097 110.253 21.814 110.253 42.36V56.676C110.253 69.697 100.082 80.583 87.0976 81.458L86.5466 81.496ZM71.9996 78.644C59.0446 78.644 48.1136 68.953 46.5736 56.1L46.5056 55.524H48.8176L48.8286 56.028C48.9086 59.918 52.1396 63.083 56.0286 63.083H64.3536C68.3266 63.083 71.5576 59.851 71.5576 55.878V52.276C71.5576 48.303 68.3266 45.072 64.3536 45.072H56.0286C52.7136 45.072 49.8386 47.319 49.0376 50.537L48.9396 50.927H46.3896V44.105H51.7516C59.2236 44.105 66.5146 42.656 73.4196 39.794C75.1426 39.081 76.8476 38.274 78.4886 37.398L78.7996 37.231L79.0666 37.46C83.8926 41.597 90.0666 43.874 96.4516 43.874H97.6116V50.858H95.2616L95.1616 50.471C94.3386 47.291 91.4706 45.072 88.1846 45.072H79.8596C75.8866 45.072 72.6556 48.302 72.6556 52.275V55.877C72.6556 59.85 75.8866 63.081 79.8596 63.081H88.1846C92.1096 63.081 95.3406 59.889 95.3876 55.964L95.3936 55.455H97.5006L97.4336 56.03C95.9246 68.922 84.9896 78.644 71.9996 78.644ZM88.1856 58.484H79.8596C78.4216 58.484 77.2526 57.314 77.2526 55.877V52.275C77.2526 50.837 78.4226 49.668 79.8596 49.668H88.1846C89.6226 49.668 90.7916 50.838 90.7916 52.275V55.877C90.7926 57.314 89.6226 58.484 88.1856 58.484ZM64.3526 58.484H56.0286C54.5906 58.484 53.4216 57.314 53.4216 55.877V52.275C53.4216 50.837 54.5916 49.668 56.0286 49.668H64.3526C65.7906 49.668 66.9596 50.838 66.9596 52.275V55.877C66.9596 57.314 65.7906 58.484 64.3526 58.484Z" fill="#11305D"/>
<path d="M70.8918 9.68506C69.6238 9.68506 68.5928 10.7161 68.5928 11.9841C68.5928 13.2521 69.6238 14.2831 70.8918 14.2831H71.0118C72.2798 14.2831 73.3098 13.2521 73.3098 11.9841C73.3098 10.7161 72.2798 9.68506 71.0118 9.68506H70.8918Z" fill="#11305D"/>
<path d="M60.995 11.373C60.738 11.373 60.483 11.417 60.238 11.502C56.803 12.701 53.611 14.459 50.749 16.725C50.268 17.107 49.963 17.652 49.893 18.262C49.821 18.871 49.993 19.473 50.373 19.953C51.136 20.917 52.639 21.093 53.601 20.329C56.065 18.381 58.807 16.872 61.753 15.844C62.949 15.426 63.583 14.113 63.166 12.917C62.844 11.993 61.972 11.373 60.995 11.373Z" fill="#11305D"/>
</svg>

<?xml version="1.0" encoding="utf-8"?>
<!-- Generator: Adobe Illustrator 15.0.2, SVG Export Plug-In . SVG Version: 6.00 Build 0)  -->
<!DOCTYPE svg PUBLIC "-//W3C//DTD SVG 1.1//EN" "http://www.w3.org/Graphics/SVG/1.1/DTD/svg11.dtd">
<svg version="1.1" id="Layer_1" xmlns="http://www.w3.org/2000/svg" xmlns:xlink="http://www.w3.org/1999/xlink" x="0px" y="0px"
	 width="144px" height="144px" viewBox="0 0 144 144" enable-background="new 0 0 144 144" xml:space="preserve">
<g>
	<g>
		<g>
			<g>
				<path d="M125.601,118.5c-1.268,0-2.299,1.031-2.299,2.299v0.219c0,1.268,1.031,2.299,2.299,2.299s2.299-1.031,2.299-2.299
					v-0.219C127.899,119.531,126.868,118.5,125.601,118.5z"/>
			</g>
		</g>
	</g>
	<g>
		<g>
			<g>
				<path d="M34.554,95.752c-5.408,1.688-10.001,4.961-13.336,9.484c-3.348,4.54-5.117,9.922-5.117,15.562v20.402
					c0,1.268,1.031,2.299,2.298,2.299h107.202c1.268,0,2.299-1.031,2.299-2.299v-9.283c0-1.268-1.031-2.299-2.299-2.299
					s-2.299,1.031-2.299,2.299v6.984H91.929l12.597-11.173c0.855-0.758,1.021-2.046,0.386-2.999l-5.357-8.001l10.485-15.874
					l0.397,0.176c4.226,1.867,7.679,4.975,9.986,8.984c0.609,1.057,2.079,1.455,3.139,0.846c0.532-0.307,0.913-0.802,1.073-1.395
					s0.079-1.213-0.227-1.744c-3.316-5.761-8.636-10.014-14.98-11.977l-17.102-5.292c-1.966-0.608-3.62-1.918-4.656-3.688l-0.41-0.7
					l0.808-0.072c15.018-1.35,26.781-14.226,26.781-29.316V42.36c0-23.082-18.778-41.86-41.86-41.86h-1.977
					c-23.082,0-41.86,18.778-41.86,41.86v14.316c0,15.088,11.762,27.965,26.777,29.316l0.918,0.082l-0.552,0.739
					c-1.06,1.77-2.693,3.043-4.621,3.641L34.554,95.752z M85.001,138.902h-9.432l13.722-44.693l0.522,0.217
					c0.375,0.156,0.759,0.298,1.153,0.42l14.557,4.504l-10.648,16.122c-0.512,0.774-0.508,1.773,0.009,2.545l5.09,7.605
					L85.001,138.902z M68.89,138.902h-9.431l-14.974-13.279l5.091-7.606c0.516-0.771,0.52-1.771,0.008-2.545l-10.726-16.24
					l14.174-4.386c0.522-0.161,1.041-0.359,1.543-0.588l0.534-0.243L68.89,138.902z M52.531,138.902H20.697v-18.104
					c0-8.738,5.194-16.562,13.231-19.929l0.393-0.165l10.583,16.024l-5.356,8.003c-0.637,0.95-0.471,2.239,0.385,2.998
					L52.531,138.902z M72.23,134.117l-7.861-25.603L72,99.246l7.965,9.674L72.23,134.117z M81.582,103.653l-6.119-7.433l9.259-5.607
					l0.623,0.709l-0.067,0.295L81.582,103.653z M62.752,103.245l-3.787-12.333l9.519,5.373L62.752,103.245z M71.959,92.968
					l-10.651-6.013l0.128-0.398c0.408-1.271,0.614-2.598,0.614-3.94v-1.052l0.673,0.218c5.988,1.938,12.568,1.938,18.555,0
					l0.673-0.218v1.052c0,1.21,0.167,2.406,0.496,3.557l0.108,0.378L71.959,92.968z M86.547,81.496v-1.994l0.262-0.147
					c9.441-5.334,15.34-15.357,15.396-26.161l0.002-15.201c0-1.268-1.031-2.299-2.299-2.299s-2.299,1.031-2.299,2.299v1.284H96.45
					c-4.658,0-9.109-1.426-12.874-4.124l-0.599-0.43l0.609-0.414c2.931-1.992,5.69-4.277,8.203-6.789
					c0.435-0.434,0.673-1.012,0.673-1.625c0-0.614-0.238-1.192-0.673-1.626c-0.869-0.868-2.383-0.868-3.251,0
					c-9.825,9.826-22.891,15.237-36.787,15.237H46.39v-1.514c0-1.268-1.031-2.299-2.298-2.299s-2.299,1.031-2.299,2.299
					l0.002,15.194c0.089,10.863,5.988,20.853,15.396,26.168l0.261,0.147v1.993l-0.549-0.037
					c-12.984-0.874-23.154-11.759-23.154-24.781V42.36c0-20.546,16.716-37.263,37.263-37.263h1.977
					c20.547,0,37.264,16.717,37.264,37.263v14.316c0,13.021-10.171,23.907-23.155,24.782L86.547,81.496z M72,78.644
					c-12.955,0-23.886-9.691-25.426-22.544l-0.068-0.576h2.312l0.011,0.504c0.08,3.89,3.311,7.055,7.2,7.055h8.325
					c3.973,0,7.204-3.232,7.204-7.205v-3.602c0-3.973-3.231-7.204-7.204-7.204h-8.325c-3.315,0-6.19,2.247-6.991,5.465l-0.098,0.39
					h-2.55v-6.822h5.362c7.472,0,14.763-1.449,21.668-4.311c1.723-0.713,3.428-1.52,5.069-2.396l0.311-0.167l0.267,0.229
					c4.826,4.137,11,6.414,17.385,6.414h1.16v6.984h-2.35l-0.1-0.387c-0.823-3.18-3.691-5.399-6.977-5.399H79.86
					c-3.973,0-7.204,3.23-7.204,7.203v3.602c0,3.973,3.231,7.204,7.204,7.204h8.325c3.925,0,7.156-3.192,7.203-7.117l0.006-0.509
					h2.107l-0.067,0.575C95.925,68.922,84.99,78.644,72,78.644z M88.186,58.484H79.86c-1.438,0-2.607-1.17-2.607-2.607v-3.602
					c0-1.438,1.17-2.607,2.607-2.607h8.325c1.438,0,2.607,1.17,2.607,2.607v3.602C90.793,57.314,89.623,58.484,88.186,58.484z
					 M64.353,58.484h-8.324c-1.438,0-2.607-1.17-2.607-2.607v-3.602c0-1.438,1.17-2.607,2.607-2.607h8.324
					c1.438,0,2.607,1.17,2.607,2.607v3.602C66.96,57.314,65.791,58.484,64.353,58.484z"/>
			</g>
		</g>
	</g>
	<g>
		<g>
			<g>
				<path d="M70.892,9.685c-1.268,0-2.299,1.031-2.299,2.299s1.031,2.299,2.299,2.299h0.12c1.268,0,2.298-1.031,2.298-2.299
					s-1.03-2.299-2.298-2.299H70.892z"/>
			</g>
		</g>
	</g>
	<g>
		<g>
			<g>
				<path d="M60.995,11.373c-0.257,0-0.512,0.044-0.757,0.129c-3.435,1.199-6.627,2.957-9.489,5.223
					c-0.481,0.382-0.786,0.927-0.856,1.537c-0.072,0.609,0.1,1.211,0.48,1.691c0.763,0.964,2.266,1.14,3.228,0.376
					c2.464-1.948,5.206-3.457,8.152-4.485c1.196-0.418,1.83-1.731,1.413-2.927C62.844,11.993,61.972,11.373,60.995,11.373z"/>
			</g>
		</g>
	</g>
</g>
</svg>
